X:1
T:60 Lessons for 2 Guitars, Op.168 - Joseph Küffner (1776 - 1856)
T:Leçon No.51
T:60 Lessons for 2 Guitars, Op.168 "à l'usage des commençants"
T:Joseph Küffner (1776 - 1856)
%%score { ( 1 2 ) ( 3 4 ) } { ( 5 6 ) ( 7 8 ) }
L:1/8
Q:1/4=120
M:3/4
K:A
V:1 treble-8 nm="Classical Guitar"
V:2 treble-8 
V:3 tab stafflines=6 strings=E2,A2,D3,G3,B3,E4 nostems nm="Guitare classique [Tablature]"
V:4 tab stafflines=6 strings=E2,A2,D3,G3,B3,E4 nostems 
V:5 treble-8 nm="Guitare classique"
V:6 treble-8 
V:7 tab stafflines=6 strings=E2,A2,D3,G3,B3,E4 nostems nm="Guitare classique [Tablature]"
V:8 tab stafflines=6 strings=E2,A2,D3,G3,B3,E4 nostems 
V:1
"_" z"^Ländler" ec'ec'e | [ec']7/2 [db]/ [db]2 | z dbdbd | [db]7/2 [ca]/ [ca]2 | z ec'ec'e | %5
 z cacac | z BdgBd | A,2 [cea]2 z2 :: %8
"_" !arpeggio![E,Bde]2 !arpeggio![E,^Ace]2 !arpeggio![E,Bde]2 | [=Ace]2 (!>!fe) e2 | %10
 [Bde]2 (!>!ag) g2 | [ce]2 (!>!ba) a2 | !arpeggio![E,Bde]2 !arpeggio![E,^Ace]2 !arpeggio![E,Bde]2 | %13
 [=Ace]2 (!>!fe) e2 | [Bde]2 (!>!ag) g2 | A,2 [cea]2 z2 :| %16
V:2
 A,4 z2 | E,6 | E,4 z2 | A,6 | A,4 z2 | A,6 | E,6 | x6 :: x6 | A,4 z2 | E,4 z2 | A,4 z2 | x6 | %13
 A,4 z2 | E,4 z2 | x6 :| %16
V:3
 x !3!E !1!c !3!E !1!c !3!E | [!3!E!1!c]7/2 [!3!D!1!B]/ [!3!D!1!B]2 | x !3!D !1!B !3!D !1!B !3!D | %3
 [!3!D!1!B]7/2 [!3!C!1!A]/ [!3!C!1!A]2 | x !3!E !1!c !3!E !1!c !3!E | x !3!C !1!A !3!C !1!A !3!C | %6
 x !3!B, !2!D !1!G !3!B, !2!D | !5!A,,2 [!3!C!2!E!1!A]2 x2 :: %8
 [!6!E,,!3!B,!2!D!1!E]2 [!6!E,,!3!^A,!2!C!1!E]2 [!6!E,,!3!B,!2!D!1!E]2 | %9
 [!3!=A,!2!C!1!E]2 (!1!F !1!E) !1!E2 | [!3!B,!2!D!1!E]2 (!1!A !1!G) !1!G2 | %11
 [!3!C!2!E]2 (!1!B !1!A) !1!A2 | %12
 [!6!E,,!3!B,!2!D!1!E]2 [!6!E,,!3!^A,!2!C!1!E]2 [!6!E,,!3!B,!2!D!1!E]2 | %13
 [!3!=A,!2!C!1!E]2 (!1!F !1!E) !1!E2 | [!3!B,!2!D!1!E]2 (!1!A !1!G) !1!G2 | %15
 !5!A,,2 [!3!C!2!E!1!A]2 x2 :| %16
V:4
 !5!A,,4 x2 | !6!E,,6 | !6!E,,4 x2 | !5!A,,6 | !5!A,,4 x2 | !5!A,,6 | !6!E,,6 | x6 :: x6 | %9
 !5!A,,4 x2 | !6!E,,4 x2 | !5!A,,4 x2 | x6 | !5!A,,4 x2 | !6!E,,4 x2 | x6 :| %16
V:5
"_" z2 [Ace]2 [Ace]2 | z BdB !>!e2 | z2 [Bde]2 [Bde]2 | z AcA !>!e2 | z2 [Ace]2 [Ace]2 | %5
 z2 [Ace]2 [Ace]2 | z2 [Gde]2 [Gde]2 | A,2 [Ace]2 z2 :: %8
"_" !arpeggio![E,EGB]2 z2 !arpeggio![E,EGB]2 | z2 [EAc]2 [EAc]2 | z2 [EGd]2 [EGd]2 | %11
 z2 [EAc]2 [EAc]2 | !arpeggio![E,GBe]2 z2 !arpeggio![E,GBe]2 | z2 [Ace]2 [Ace]2 | %14
 z2 [Gde]2 [Gde]2 | A,2 [Ace]2 z2 :| %16
V:6
 A,6 | E,6 | E,6 | A,6 | A,6 | A,6 | E,6 | x6 :: x6 | A,6 | E,6 | A,6 | x6 | A,6 | E,6 | x6 :| %16
V:7
 x2 [!3!A,!2!C!1!E]2 [!3!A,!2!C!1!E]2 | x !3!B, !2!D !3!B, !1!E2 | %2
 x2 [!3!B,!2!D!1!E]2 [!3!B,!2!D!1!E]2 | x !3!A, !2!C !3!A, !1!E2 | %4
 x2 [!3!A,!2!C!1!E]2 [!3!A,!2!C!1!E]2 | x2 [!3!A,!2!C!1!E]2 [!3!A,!2!C!1!E]2 | %6
 x2 [!3!G,!2!D!1!E]2 [!3!G,!2!D!1!E]2 | !5!A,,2 [!3!A,!2!C!1!E]2 x2 :: %8
 [!6!E,,!4!E,!3!G,!2!B,]2 x2 [!6!E,,!4!E,!3!G,!2!B,]2 | x2 [!4!E,!3!A,!2!C]2 [!4!E,!3!A,!2!C]2 | %10
 x2 [!4!E,!3!G,!2!D]2 [!4!E,!3!G,!2!D]2 | x2 [!4!E,!3!A,!2!C]2 [!4!E,!3!A,!2!C]2 | %12
 [!6!E,,!3!G,!2!B,!1!E]2 x2 [!6!E,,!3!G,!2!B,!1!E]2 | x2 [!3!A,!2!C!1!E]2 [!3!A,!2!C!1!E]2 | %14
 x2 [!3!G,!2!D!1!E]2 [!3!G,!2!D!1!E]2 | !5!A,,2 [!3!A,!2!C!1!E]2 x2 :| %16
V:8
 !5!A,,6 | !6!E,,6 | !6!E,,6 | !5!A,,6 | !5!A,,6 | !5!A,,6 | !6!E,,6 | x6 :: x6 | !5!A,,6 | %10
 !6!E,,6 | !5!A,,6 | x6 | !5!A,,6 | !6!E,,6 | x6 :| %16

